images/icon/instagram.svg

<svg width="16" height="16" viewBox="0 0 16 16" fill="none" xmlns="http://www.w3.org/2000/svg">
<path fill-rule="evenodd" clip-rule="evenodd" d="M16 8C16 12.4183 12.4183 16 8 16C3.58172 16 0 12.4183 0 8C0 3.58172 3.58172 0 8 0C12.4183 0 16 3.58172 16 8ZM9.6488 4.024C9.2224 4.004 9.0868 4 8 4C6.9132 4 6.7776 4.0052 6.3512 4.024C5.9248 4.044 5.6352 4.1108 5.38 4.21C5.11297 4.31029 4.87107 4.46769 4.6712 4.6712C4.46752 4.87093 4.31009 5.11287 4.21 5.38C4.1108 5.6352 4.044 5.9248 4.024 6.3512C4.004 6.7776 4 6.9132 4 8C4 9.0868 4.0052 9.2224 4.024 9.6488C4.044 10.0748 4.1108 10.3652 4.21 10.62C4.31037 10.887 4.46776 11.1289 4.6712 11.3288C4.87101 11.5324 5.11293 11.6898 5.38 11.79C5.6352 11.8888 5.9252 11.956 6.3512 11.976C6.7776 11.996 6.9132 12 8 12C9.0868 12 9.2224 11.9948 9.6488 11.976C10.0748 11.956 10.3652 11.8888 10.62 11.79C10.8869 11.6895 11.1288 11.5321 11.3288 11.3288C11.5324 11.129 11.6899 10.8871 11.79 10.62C11.8888 10.3648 11.956 10.0748 11.976 9.6488C11.996 9.2224 12 9.0868 12 8C12 6.9132 11.9948 6.7776 11.976 6.3512C11.956 5.9252 11.8888 5.6348 11.79 5.38C11.6896 5.11304 11.5322 4.87116 11.3288 4.6712C11.1064 4.4492 10.884 4.3116 10.62 4.21C10.3648 4.1108 10.0748 4.044 9.6488 4.024ZM6.58579 6.58579C6.96086 6.21071 7.46957 6 8 6C8.53043 6 9.03914 6.21071 9.41421 6.58579C9.78929 6.96086 10 7.46957 10 8C10 8.53043 9.78929 9.03914 9.41421 9.41421C9.03914 9.78929 8.53043 10 8 10C7.46957 10 6.96086 9.78929 6.58579 9.41421C6.21071 9.03914 6 8.53043 6 8C6 7.46957 6.21071 6.96086 6.58579 6.58579ZM10.4536 5.54645C10.5473 5.64021 10.6 5.76739 10.6 5.9C10.6 6.03261 10.5473 6.15979 10.4536 6.25355C10.3598 6.34732 10.2326 6.4 10.1 6.4C9.96739 6.4 9.84021 6.34732 9.74645 6.25355C9.65268 6.15979 9.6 6.03261 9.6 5.9C9.6 5.76739 9.65268 5.64021 9.74645 5.54645C9.84021 5.45268 9.96739 5.4 10.1 5.4C10.2326 5.4 10.3598 5.45268 10.4536 5.54645ZM8.84853 7.15147C8.62348 6.92643 8.31826 6.8 8 6.8C7.68174 6.8 7.37652 6.92643 7.15147 7.15147C6.92643 7.37652 6.8 7.68174 6.8 8C6.8 8.31826 6.92643 8.62348 7.15147 8.84853C7.37652 9.07357 7.68174 9.2 8 9.2C8.31826 9.2 8.62348 9.07357 8.84853 8.84853C9.07357 8.62348 9.2 8.31826 9.2 8C9.2 7.68174 9.07357 7.37652 8.84853 7.15147Z" fill="#2D3440"/>
</svg>

<svg width="16" height="16" fill="none" xmlns="http://www.w3.org/2000/svg"><path fill-rule="evenodd" clip-rule="evenodd" d="M16 8A8 8 0 1 1 0 8a8 8 0 0 1 16 0ZM9.65 4.02C9.22 4 9.09 4 8 4c-1.09 0-1.22 0-1.65.02-.43.02-.71.1-.97.19-.27.1-.5.26-.7.46-.21.2-.37.44-.47.71-.1.26-.17.54-.19.97C4 6.78 4 6.91 4 8c0 1.09 0 1.22.02 1.65.02.42.1.72.19.97.1.27.26.5.46.7.2.21.44.37.71.47.26.1.55.17.97.19.43.02.56.02 1.65.02 1.09 0 1.22 0 1.65-.02.42-.02.72-.1.97-.19.27-.1.5-.26.7-.46.21-.2.37-.44.47-.71.1-.26.17-.55.19-.97C12 9.22 12 9.09 12 8c0-1.09 0-1.22-.02-1.65a2.95 2.95 0 0 0-.19-.97c-.1-.27-.26-.5-.46-.7a1.95 1.95 0 0 0-.71-.47c-.26-.1-.55-.17-.97-.19ZM6.59 6.6A2 2 0 1 1 9.4 9.4 2 2 0 0 1 6.6 6.6Zm3.86-1.04a.5.5 0 1 1-.7.7.5.5 0 0 1 .7-.7Zm-1.6 1.6a1.2 1.2 0 1 0-1.7 1.7 1.2 1.2 0 0 0 1.7-1.7Z" fill="#2D3440"/></svg>
